Papirus/16x16/apps/org.kde.merkuro.contact.svg

<!-- Created with Inkscape (http://www.inkscape.org/) -->
<svg width="16" height="16" version="1.1" viewBox="0 0 16 16" xmlns="http://www.w3.org/2000/svg">
 <rect width="16" height="16" ry="3" style="fill:#4bae4f"/>
 <path d="m8 8.0000012c-3.9996001 0.00231-4.0000001 2.4615378-4.0000001 2.4615378v1s0.738457 1.538461 4.0000001 1.538461c3.261543 1e-6 4-1.53846 4-1.53846v-1.000001s0-2.4630762-3.9992001-2.4615378zm1e-7 -5.000001c1.1045333 0 1.9999999 0.8954667 1.9999999 2 0 1.1044-0.8955999 2-1.9999999 2s-2-0.8956-2-2 0.8956-2 2-2z" style="fill:#ffffff"/>
</svg>

<svg xmlns="http://www.w3.org/2000/svg" width="16" height="16" version="1.1">
 <rect style="fill:#4bae4f" width="16" height="16" ry="3"/>
 <path style="fill:#ffffff" d="M 10,5 A 2,2 0 0 1 8,7 2,2 0 0 1 6,5 2,2 0 0 1 8,3 2,2 0 0 1 10,5 Z M 8,8 C 4,8 4,10.46 4,10.46 V 11.46 C 4,11.46 4.74,13 8,13 11.26,13 12,11.46 12,11.46 V 10.46 C 12,10.46 12,8 8,8 Z"/>
</svg>
